icons/1_Primary/Files.com.svg

<svg width="1024" height="1024" fill="none" xmlns="http://www.w3.org/2000/svg"><g clip-path="url(#a)"><path d="M512 1024c282.77 0 512-229.23 512-512S794.77 0 512 0 0 229.23 0 512s229.23 512 512 512Z" fill="#BA6561"/><path d="M327.74 361.92v155.63a6.54 6.54 0 0 0 6.54 6.54h155.63a6.552 6.552 0 0 0 5.057-2.401 6.569 6.569 0 0 0 1.363-5.429 6.57 6.57 0 0 0-1.79-3.34L338.89 357.3a6.677 6.677 0 0 0-3.34-1.76 6.448 6.448 0 0 0-3.77.38 6.373 6.373 0 0 0-2.92 2.4 6.546 6.546 0 0 0-1.12 3.6Zm61 8.12 122 121.91a6.573 6.573 0 0 0 3.35 1.79 6.586 6.586 0 0 0 6.72-2.77 6.59 6.59 0 0 0 1.11-3.64V243.47a6.557 6.557 0 0 0-7.83-6.42 6.66 6.66 0 0 0-3.35 1.79l-122 121.86a6.495 6.495 0 0 0-1.45 2.14 6.56 6.56 0 0 0 0 5c.332.806.817 1.54 1.43 2.16l.02.04Zm164.16-23.63v140.91a6.42 6.42 0 0 0 1.11 3.63 6.507 6.507 0 0 0 7.64 2.543 6.515 6.515 0 0 0 2.42-1.543L705 351a6.66 6.66 0 0 0 1.79-3.35A6.591 6.591 0 0 0 704 341a6.59 6.59 0 0 0-3.64-1.11H559.44a6.54 6.54 0 0 0-6.54 6.56v-.04Zm31.91 177.68h176.65a6.552 6.552 0 0 0 5.057-2.401 6.553 6.553 0 0 0 1.363-5.429 6.57 6.57 0 0 0-1.79-3.34l-88.33-88.32a6.273 6.273 0 0 0-2.13-1.42 6.484 6.484 0 0 0-5 0 6.34 6.34 0 0 0-2.12 1.42l-88.33 88.33a6.535 6.535 0 0 0-1.41 7.14 6.528 6.528 0 0 0 2.421 2.922 6.528 6.528 0 0 0 3.639 1.078l-.02.02Zm-4.64 37.32 99.94 99.95a6.63 6.63 0 0 0 3.35 1.8 6.564 6.564 0 0 0 7.212-3.633 6.568 6.568 0 0 0 .628-2.807v-99.86a6.511 6.511 0 0 0-4-6.05 6.327 6.327 0 0 0-2.51-.5h-99.98a6.544 6.544 0 0 0-6 4 6.595 6.595 0 0 0 1.35 7.09l.01.01Zm70.63 107.75-86.74-86.74a6.566 6.566 0 0 0-3.37-1.8 6.49 6.49 0 0 0-3.78.38 6.65 6.65 0 0 0-2.92 2.41 6.443 6.443 0 0 0-1.11 3.63v173.49a6.495 6.495 0 0 0 4 6 6.49 6.49 0 0 0 3.78.38 6.558 6.558 0 0 0 3.35-1.79l86.74-86.74a6.56 6.56 0 0 0 0-9.25l.05.03Zm-129 52.28V587.08a6.557 6.557 0 0 0-7.83-6.42 6.57 6.57 0 0 0-3.34 1.79L376.25 716.82a6.63 6.63 0 0 0-1.8 3.35 6.55 6.55 0 0 0 1.365 5.444 6.55 6.55 0 0 0 5.075 2.396h134.35a6.685 6.685 0 0 0 2.52-.5 6.35 6.35 0 0 0 2.12-1.42 6.462 6.462 0 0 0 1.42-2.09 6.545 6.545 0 0 0 .49-2.51l.01-.05ZM489.91 550.3H262.48a6.503 6.503 0 0 0-3.59 1.12 6.467 6.467 0 0 0-2.77 6.64 6.614 6.614 0 0 0 1.73 3.34l113.71 113.73a6.653 6.653 0 0 0 4.64 1.93 6.685 6.685 0 0 0 2.52-.5 6.35 6.35 0 0 0 2.12-1.42l113.7-113.72a6.63 6.63 0 0 0 1.73-3.34 6.414 6.414 0 0 0-.38-3.73 6.589 6.589 0 0 0-2.4-2.91 6.439 6.439 0 0 0-3.58-1.14Z" fill="#fff"/></g><defs><clipPath id="a"><path fill="#fff" d="M0 0h1024v1024H0z"/></clipPath></defs></svg>

<svg width="1024" height="1024" viewBox="0 0 1024 1024" fill="none" xmlns="http://www.w3.org/2000/svg">
<g clip-path="url(#clip0_2_2196)">
<path d="M512 1024C794.77 1024 1024 794.77 1024 512C1024 229.23 794.77 0 512 0C229.23 0 0 229.23 0 512C0 794.77 229.23 1024 512 1024Z" fill="#BA6561"/>
<path d="M327.74 361.92V517.55C327.74 519.284 328.429 520.948 329.655 522.174C330.882 523.401 332.545 524.09 334.28 524.09H489.91C490.878 524.088 491.833 523.871 492.707 523.456C493.582 523.041 494.353 522.438 494.967 521.689C495.58 520.941 496.021 520.066 496.257 519.127C496.492 518.189 496.517 517.209 496.33 516.26C496.074 514.995 495.452 513.833 494.54 512.92L338.89 357.3C337.969 356.404 336.809 355.793 335.55 355.54C334.283 355.286 332.97 355.419 331.78 355.92C330.586 356.407 329.568 357.243 328.86 358.32C328.142 359.384 327.752 360.636 327.74 361.92ZM388.74 370.04L510.74 491.95C511.656 492.863 512.821 493.486 514.09 493.74C515.358 493.988 516.671 493.858 517.866 493.365C519.061 492.873 520.085 492.04 520.81 490.97C521.53 489.892 521.916 488.626 521.92 487.33V243.47C521.917 242.502 521.701 241.547 521.286 240.672C520.871 239.798 520.268 239.027 519.519 238.413C518.771 237.799 517.896 237.359 516.957 237.123C516.018 236.888 515.039 236.863 514.09 237.05C512.823 237.309 511.659 237.931 510.74 238.84L388.74 360.7C388.118 361.309 387.625 362.037 387.29 362.84C386.63 364.441 386.63 366.239 387.29 367.84C387.622 368.646 388.107 369.38 388.72 370L388.74 370.04ZM552.9 346.41V487.32C552.896 488.614 553.282 489.879 554.01 490.95C554.543 491.759 555.25 492.438 556.079 492.939C556.908 493.44 557.838 493.75 558.802 493.846C559.766 493.942 560.739 493.821 561.65 493.493C562.561 493.165 563.388 492.638 564.07 491.95L705 351C705.909 350.081 706.531 348.917 706.79 347.65C707.021 346.39 706.881 345.09 706.385 343.909C705.89 342.728 705.061 341.717 704 341C702.922 340.28 701.656 339.894 700.36 339.89H559.44C558.579 339.89 557.727 340.06 556.932 340.39C556.138 340.72 555.416 341.203 554.808 341.812C554.201 342.422 553.719 343.145 553.392 343.941C553.064 344.737 552.897 345.589 552.9 346.45V346.41ZM584.81 524.09H761.46C762.428 524.088 763.383 523.871 764.257 523.456C765.132 523.041 765.903 522.438 766.517 521.689C767.13 520.941 767.571 520.066 767.806 519.127C768.042 518.189 768.067 517.209 767.88 516.26C767.624 514.995 767.002 513.833 766.09 512.92L677.76 424.6C677.155 423.985 676.43 423.502 675.63 423.18C674.838 422.849 673.988 422.679 673.13 422.679C672.272 422.679 671.422 422.849 670.63 423.18C669.834 423.505 669.113 423.988 668.51 424.6L580.18 512.93C579.264 513.846 578.641 515.014 578.39 516.286C578.139 517.557 578.271 518.874 578.77 520.07C579.27 521.262 580.112 522.279 581.191 522.992C582.271 523.704 583.537 524.079 584.83 524.07L584.81 524.09ZM580.17 561.41L680.11 661.36C681.027 662.274 682.191 662.9 683.46 663.16C684.412 663.349 685.394 663.325 686.335 663.089C687.276 662.853 688.154 662.411 688.904 661.795C689.654 661.179 690.258 660.404 690.672 659.527C691.086 658.649 691.301 657.69 691.3 656.72V556.86C691.308 555.568 690.933 554.304 690.22 553.226C689.508 552.149 688.491 551.308 687.3 550.81C686.506 550.474 685.652 550.304 684.79 550.31H584.81C583.528 550.316 582.276 550.699 581.21 551.41C580.143 552.121 579.309 553.129 578.81 554.31C578.322 555.495 578.19 556.797 578.43 558.056C578.67 559.315 579.271 560.477 580.16 561.4L580.17 561.41ZM650.8 669.16L564.06 582.42C563.14 581.499 561.967 580.873 560.69 580.62C559.42 580.367 558.104 580.499 556.91 581C555.724 581.503 554.709 582.341 553.99 583.41C553.264 584.481 552.877 585.746 552.88 587.04V760.53C552.879 761.813 553.258 763.069 553.97 764.137C554.682 765.205 555.695 766.037 556.88 766.53C558.074 767.031 559.39 767.163 560.66 766.91C561.929 766.657 563.094 766.034 564.01 765.12L650.75 678.38C651.972 677.151 652.658 675.488 652.658 673.755C652.658 672.022 651.972 670.359 650.75 669.13L650.8 669.16ZM521.8 721.44V587.08C521.797 586.112 521.581 585.157 521.166 584.282C520.751 583.408 520.148 582.637 519.399 582.023C518.651 581.409 517.776 580.969 516.837 580.733C515.898 580.498 514.919 580.472 513.97 580.66C512.705 580.916 511.543 581.538 510.63 582.45L376.25 716.82C375.336 717.737 374.71 718.901 374.45 720.17C374.26 721.122 374.285 722.104 374.521 723.045C374.757 723.987 375.199 724.864 375.815 725.614C376.431 726.364 377.205 726.968 378.083 727.382C378.961 727.796 379.919 728.011 380.89 728.01H515.24C516.104 728.008 516.96 727.838 517.76 727.51C518.555 727.185 519.277 726.702 519.88 726.09C520.486 725.494 520.969 724.783 521.3 724C521.627 723.204 521.793 722.351 521.79 721.49L521.8 721.44ZM489.91 550.3H262.48C261.199 550.312 259.95 550.701 258.89 551.42C257.823 552.128 256.99 553.137 256.497 554.319C256.004 555.501 255.873 556.803 256.12 558.06C256.361 559.317 256.962 560.477 257.85 561.4L371.56 675.13C372.795 676.355 374.46 677.048 376.2 677.06C377.064 677.058 377.92 676.888 378.72 676.56C379.515 676.235 380.237 675.752 380.84 675.14L494.54 561.42C495.427 560.497 496.028 559.337 496.27 558.08C496.518 556.826 496.385 555.528 495.89 554.35C495.391 553.167 494.556 552.155 493.49 551.44C492.436 550.712 491.19 550.316 489.91 550.3Z" fill="white"/>
</g>
<defs>
<clipPath id="clip0_2_2196">
<rect width="1024" height="1024" fill="white"/>
</clipPath>
</defs>
</svg>
